svgs/thin/circle-radiation.svg

<svg xmlns="http://www.w3.org/2000/svg" viewBox="0 0 512 512"><!--! Font Awesome Pro 6.0.0-alpha3 by @fontawesome - https://fontawesome.com License - https://fontawesome.com/license (Commercial License) --><path d="M208 256c0-4.422-3.578-8-8-8H121c-2.281 0-4.359-.9375-5.875-2.656C113.5 243.5 112.8 240.1 113.1 238.4C117.6 201.5 136.3 168.1 165.8 144.4c1.906-1.547 4.422-2.219 6.797-1.812c2.281 .3906 4.219 1.672 5.437 3.609l41.64 66.7c2.344 3.766 7.344 4.891 11.02 2.547c3.75-2.328 4.891-7.266 2.547-11.02L191.6 137.7C187.9 131.9 181.1 127.9 175.2 126.8C168.3 125.6 161.2 127.5 155.7 131.9C123 158.3 102.3 195.4 97.2 236.5C96.33 243.5 98.52 250.7 103.2 255.9C107.7 261.1 114.2 264 121 264H200C204.4 264 208 260.4 208 256zM224 256c0 17.64 14.36 32 32 32s32-14.36 32-32s-14.36-32-32-32S224 238.4 224 256zM256 240c8.828 0 16 7.172 16 16S264.8 272 256 272S240 264.8 240 256S247.2 240 256 240zM256 16C123.5 16 16 123.5 16 256s107.5 240 240 240s240-107.5 240-240S388.5 16 256 16zM256 480c-123.5 0-224-100.5-224-224s100.5-224 224-224s224 100.5 224 224S379.5 480 256 480zM356.4 132c-5.484-4.422-12.58-6.297-19.5-5.172c-6.766 1.141-12.72 5.109-16.36 10.91l-41.72 66.67c-2.344 3.75-1.203 8.688 2.531 11.03c3.781 2.359 8.703 1.234 11.03-2.531l41.72-66.67c1.219-1.953 3.156-3.234 5.438-3.625c2.328-.3438 4.859 .2656 6.797 1.828c29.36 23.72 48.03 57.09 52.58 93.97c.3125 2.547-.4531 5.062-2.094 6.922C395.3 247.1 393.2 248 390.1 248H312c-4.422 0-8 3.578-8 8s3.578 8 8 8h78.95c6.828 0 13.33-2.938 17.86-8.062c4.672-5.281 6.859-12.39 5.984-19.48C409.8 195.4 389 158.3 356.4 132zM292.4 299.1c-2.328-3.688-7.25-4.812-11.03-2.531c-3.734 2.344-4.875 7.281-2.531 11.03l41.78 66.75c1.188 1.938 1.5 4.188 .8594 6.344c-.6875 2.375-2.438 4.375-4.781 5.5c-38.67 18.31-82.86 18.31-121.3 .0313c-2.344-1.125-4.094-3.125-4.781-5.5c-.6406-2.156-.3281-4.406 .875-6.312l41.73-66.81c2.344-3.75 1.203-8.688-2.547-11.03C226.1 294.3 221.1 295.4 219.6 299.1l-41.73 66.81c-3.656 5.844-4.609 12.69-2.672 19.31c1.969 6.75 6.812 12.38 13.28 15.44C209.9 410.8 232.6 416 256 416c23.34 0 46.08-5.156 67.56-15.38c6.453-3.062 11.3-8.688 13.27-15.44c1.938-6.594 1-13.47-2.656-19.31L292.4 299.1z"/></svg>

<svg xmlns="http://www.w3.org/2000/svg" viewBox="0 0 512 512"><!-- Font Awesome Pro 6.0.0-alpha2 by @fontawesome - https://fontawesome.com License - https://fontawesome.com/license (Commercial License) --><path d="M208 256C208 251.578 204.422 248 200 248H121.047C118.766 248 116.687 247.062 115.172 245.344C113.531 243.484 112.766 240.969 113.078 238.422C117.641 201.5 136.344 168.109 165.766 144.375C167.672 142.828 170.188 142.156 172.562 142.563C174.844 142.953 176.781 144.234 178 146.172L219.641 212.875C221.984 216.641 226.984 217.766 230.656 215.422C234.406 213.094 235.547 208.156 233.203 204.406L191.562 137.688C187.922 131.891 181.969 127.922 175.203 126.781C168.312 125.625 161.188 127.5 155.719 131.922C123.047 158.281 102.266 195.391 97.203 236.453C96.328 243.547 98.516 250.656 103.188 255.938C107.719 261.062 114.219 264 121.047 264H200C204.422 264 208 260.422 208 256ZM224 256C224 273.641 238.359 288 256 288S288 273.641 288 256S273.641 224 256 224S224 238.359 224 256ZM256 240C264.828 240 272 247.172 272 256S264.828 272 256 272S240 264.828 240 256S247.172 240 256 240ZM256 16C123.451 16 16 123.451 16 256S123.451 496 256 496S496 388.549 496 256S388.549 16 256 16ZM256 480C132.486 480 32 379.514 32 256S132.486 32 256 32S480 132.486 480 256S379.514 480 256 480ZM356.406 132.016C350.922 127.594 343.828 125.719 336.906 126.844C330.141 127.984 324.188 131.953 320.547 137.75L278.828 204.422C276.484 208.172 277.625 213.109 281.359 215.453C285.141 217.813 290.063 216.688 292.391 212.922L334.109 146.25C335.328 144.297 337.266 143.016 339.547 142.625C341.875 142.281 344.406 142.891 346.344 144.453C375.703 168.172 394.375 201.547 398.922 238.422C399.234 240.969 398.469 243.484 396.828 245.344C395.312 247.062 393.234 248 390.953 248H312C307.578 248 304 251.578 304 256S307.578 264 312 264H390.953C397.781 264 404.281 261.062 408.813 255.938C413.484 250.656 415.672 243.547 414.797 236.453C409.75 195.438 389.016 158.344 356.406 132.016ZM292.391 299.094C290.062 295.406 285.141 294.281 281.359 296.562C277.625 298.906 276.484 303.844 278.828 307.594L320.609 374.344C321.797 376.281 322.109 378.531 321.469 380.688C320.781 383.063 319.031 385.063 316.687 386.188C278.016 404.5 233.828 404.5 195.375 386.219C193.031 385.094 191.281 383.094 190.594 380.719C189.953 378.563 190.266 376.313 191.469 374.406L233.203 307.594C235.547 303.844 234.406 298.906 230.656 296.563C226.984 294.281 221.984 295.406 219.641 299.094L177.906 365.906C174.25 371.75 173.297 378.594 175.234 385.219C177.203 391.969 182.047 397.594 188.516 400.656C209.922 410.844 232.625 416 256 416C279.344 416 302.078 410.844 323.562 400.625C330.016 397.562 334.859 391.937 336.828 385.187C338.766 378.594 337.828 371.719 334.172 365.875L292.391 299.094Z"/></svg>
